public/assets/img/face-smile-solid.svg

<?xml version="1.0" encoding="utf-8"?>
<!-- Generator: Adobe Illustrator 26.0.3, SVG Export Plug-In . SVG Version: 6.00 Build 0)  -->
<svg version="1.1" id="Layer_1" xmlns="http://www.w3.org/2000/svg" xmlns:xlink="http://www.w3.org/1999/xlink" x="0px" y="0px"
	 viewBox="0 0 512 512" style="enable-background:new 0 0 512 512;" xml:space="preserve">
<style type="text/css">
	.st0{fill:#E63947;}
</style>
<path class="st0" d="M0,256C0,114.6,114.6,0,256,0s256,114.6,256,256S397.4,512,256,512S0,397.4,0,256z M164.1,325.5
	c-5.8-6.7-15.9-7.4-22.6-1.6c-6.7,5.8-7.4,15.9-1.6,22.6c22.2,25.6,61,53.5,115.2,53.5c56,0,94.7-27.9,117-53.5
	c5.8-6.7,5.1-16.8-1.6-22.6c-6.7-5.8-16.8-5.1-22.6,1.6c-18,20.7-48.5,42.5-92.8,42.5C212.6,368,182,346.2,164.1,325.5L164.1,325.5z
	 M176.4,176c-17.7,0-32,14.3-32,32s14.3,32,32,32c17.6,0,32-14.3,32-32S194,176,176.4,176z M336.4,240c17.6,0,32-14.3,32-32
	s-14.4-32-32-32c-17.7,0-32,14.3-32,32S318.7,240,336.4,240z"/>
</svg>

<svg xmlns="http://www.w3.org/2000/svg" viewBox="0 0 512 512"><!--! Font Awesome Pro 6.0.0 by @fontawesome - https://fontawesome.com License - https://fontawesome.com/license (Commercial License) Copyright 2022 Fonticons, Inc. --><path d="M0 256C0 114.6 114.6 0 256 0C397.4 0 512 114.6 512 256C512 397.4 397.4 512 256 512C114.6 512 0 397.4 0 256zM164.1 325.5C158.3 318.8 148.2 318.1 141.5 323.9C134.8 329.7 134.1 339.8 139.9 346.5C162.1 372.1 200.9 400 255.1 400C311.1 400 349.8 372.1 372.1 346.5C377.9 339.8 377.2 329.7 370.5 323.9C363.8 318.1 353.7 318.8 347.9 325.5C329.9 346.2 299.4 368 255.1 368C212.6 368 182 346.2 164.1 325.5H164.1zM176.4 176C158.7 176 144.4 190.3 144.4 208C144.4 225.7 158.7 240 176.4 240C194 240 208.4 225.7 208.4 208C208.4 190.3 194 176 176.4 176zM336.4 240C354 240 368.4 225.7 368.4 208C368.4 190.3 354 176 336.4 176C318.7 176 304.4 190.3 304.4 208C304.4 225.7 318.7 240 336.4 240z"/></svg>
